X:8525
T:Kid on the Mountain
M:9/8
L:1/8
K:E Minor
EEE FFF G2F|EFE cBA BGE|EEE FFF G2A|BAG FAG FED:|!
BGB AFA G2D|GAB dge dBA|BGB AFA G2A|BAG FAG FED:|!
gfe efe e2f|gfg efg agd|gfe efe e2a|bag fag fed:|!
eBB e2f g2f|eBB efg afd|eBB e2f g2a|bag fag fed:|!
edB dBA G2D|GAB dge dBA|edB dBA G2A|BAG FAG FED:|!
